svgs/regular/sleigh.svg

<svg xmlns="http://www.w3.org/2000/svg" viewBox="0 0 640 512"><!-- Font Awesome Pro 6.0.0-alpha2 by @fontawesome - https://fontawesome.com License - https://fontawesome.com/license (Commercial License) --><path d="M612.75 350.75L609.625 348.25C599.313 340 584.125 341.687 575.875 352L575.875 352C567.591 362.355 569.27 377.466 579.625 385.75L582.75 388.25C589.15 393.288 592.435 401.145 591.797 409.396C590.784 422.488 578.663 432 565.532 432L440 432V384C506.25 384 560 330.25 560 264V144H584C597.2 144 608 133.2 608 120V120C608 106.8 597.2 96 584 96H432C423.2 96 416 103.2 416 112V184C416 249.25 281.625 236.25 234.75 141.375C201.5 73.875 134.625 32 60.25 32H24C10.8 32 0 42.8 0 56V56C0 69.2 10.8 80 24 80H32V232C32 298.875 75.75 355.25 136 375.5V432H56C42.8 432 32 442.8 32 456V456C32 469.2 42.8 480 56 480H564C603 480 637.75 450.75 639.875 411.75C641.25 387.875 631.25 365.375 612.75 350.75ZM80 232V81.375C127.875 87.875 169.625 117.75 191.75 162.625C260.25 301.625 464 308.375 464 184V144H512V264C512 303.75 479.75 336 440 336H184C126.75 336 80 289.25 80 232ZM392 432H184V384H392V432Z"/></svg>

<svg xmlns="http://www.w3.org/2000/svg" viewBox="0 0 640 512"><!-- Font Awesome Pro 5.15.1 by @fontawesome - https://fontawesome.com License - https://fontawesome.com/license (Commercial License) --><path d="M612.7 350.7l-9.3-7.4c-6.9-5.5-17-4.4-22.5 2.5l-10 12.5c-5.5 6.9-4.4 17 2.5 22.5l9.3 7.4c5.9 4.7 9.2 11.7 9.2 19.2 0 13.6-11 24.6-24.6 24.6H440v-48c66.2 0 120-53.8 120-120V144h32c8.8 0 16-7.2 16-16v-16c0-8.8-7.2-16-16-16H432c-8.8 0-16 7.2-16 16v72c0 65.3-134.4 52.3-181.2-42.6C201.5 73.9 134.6 32 60.2 32H16C7.2 32 0 39.2 0 48v16c0 8.8 7.2 16 16 16h16v152c0 66.9 43.8 123.3 104 143.5V432H48c-8.8 0-16 7.2-16 16v16c0 8.8 7.2 16 16 16h516c39 0 73.7-29.3 75.9-68.3 1.4-23.8-8.7-46.3-27.2-61zM80 232V81.4c47.9 6.5 89.6 36.4 111.7 81.2C260.3 301.6 464 308.4 464 184v-40h48v120c0 39.7-32.3 72-72 72H184c-57.3 0-104-46.7-104-104zm312 200H184v-48h208v48z"/></svg>
